X:1
L:1/16
M:3/4
K:D
|: A2- |""D"" A2>A2 d2d2 fafd |""A"" cdec A6 A2- |""A"" ABcd e2ce""D"" f2ef |""A"" gage""D"" d2fd""A"" c2>d2 | 
""A"" efec""D""{c} d6 A2- |""D"" A2>A2 d2d2 f2ef |""G""{f} g2g2 fgfe d2c2 |""Em"" c2>B2 [BE]6 B2- | 
""D"" B2>A2 A2d2 f2ed |""A"" c2>e2{e} a2a2 c2>d2 | efec""D"" d6 :: (A2 |""D"" f2>)d2 d2d2 f2fa | 
""D"" efed cBcd e2f2 |""G"" [DBg]4 gagf efed |""A"" cdcB ABAG""D"" FDFA | d2fd""A"" c2ec""D"" d2fd | 
""A"" efed cBcd e2f2 |""G"" [DBg]4{b} abag""D"" f2ef |""A"" gage""D"" d2fd""A"" c2>d2 | efec""D"" d6 :: A2- | 
""D"" A2>A2{ABc} [dD]4 [dD]4 |""D"" F2F2 A4 [AD]4 |""A"" EFED E2F2 G4- |""G"" G2B2- B2AG""A"" A2>A2 | 
""D"" A2>A2 d2d2 efed |""G"" c2dc B4- B2Bd |""A"" cdef g2ag""D"" f2ed |""A"" cdec""D"" d6 :|
